X:197
M:6/8
L:1/8
K:Bb
|: def fgf | bab fed | efg fdB | ecc c3 | def fga | bag fed | ede cfe | dBB B3 :|
|: DFB DFB | dBF FED | E/F/GE DB,D | ECC C3 | DEF GAB | cde fga | bfd cfe | dBB B3 :|
|: "tr"b>ab "tr"b>ab | "tr"b>ab fdB | (e/f/ge) (d/e/fd) | ecc c3 | "tr"b>ab "tr"b>ab | "tr"b>ab fdB | (d/e/fd) (c/d/ec) | dBB B3 :|

